public/icons/datica-icons/icons-languages/icon-ruby-lang.svg

<?xml version="1.0" encoding="UTF-8"?>
<svg width="46px" height="45px" viewBox="0 0 46 45" version="1.1" xmlns="http://www.w3.org/2000/svg" xmlns:xlink="http://www.w3.org/1999/xlink">
    <!-- Generator: Sketch 42 (36781) - http://www.bohemiancoding.com/sketch -->
    <title>Combined Shape</title>
    <desc>Created with Sketch.</desc>
    <defs></defs>
    <g id="Page-1" stroke="none" stroke-width="1" fill="none" fill-rule="evenodd">
        <path d="M32.3497593,31.8181754 L43.0528112,15.5309225 L28.7027744,16.4875916 L28.6335037,16.5485498 L32.3497593,31.8181754 Z M44.304229,15.4474946 L32.9431698,32.736063 L42.3535534,42.1464466 L41.6464466,42.8535534 L31.9601101,33.1672169 L18.3089108,43.8931592 L17,43.5 L30.960794,32.6806443 L16.5,28.5 L9.49569367,44 L4.5,32.6806443 L1.4472136,37.2236068 L0.552786405,36.7763932 L4.06466472,30.7473634 L0.552786405,23.7236068 L1.4472136,23.2763932 L4.75837673,29.8987195 L15.7509105,26.5531657 L27.6173583,16.1106916 L30.9077117,5.19572599 L26.2132688,1.90961596 L26.7867312,1.09038404 L31.542759,4.41960351 L39.2763932,0.552786405 L39.7236068,1.4472136 L32.4074034,5.10531532 L44.77996,15.4157792 L44.304229,15.4474946 Z M31.3030039,31.7773424 L27.7135992,17.3580658 L16.5586666,27.1744064 L31.3030039,31.7773424 Z M15.7284887,27.605278 L4.89236933,30.9032274 L9.49569367,41.5 L15.7284887,27.605278 Z M31.7530031,5.86169009 L28.6643019,15.4879367 L42.22004,14.5842208 L31.7530031,5.86169009 Z M25.8854803,1.01329142 L39.6703513,0.493347874 L45.5160314,5.27617704 L42.9686087,43.4875175 L5.23180159,44.5074312 L0.5,37.1468509 L0.5,23.881966 L4.5527864,15.7763932 L4.64644661,15.6464466 L17.2470238,3.04586943 L25.8854803,1.01329142 Z M17.7529762,3.95413057 L5.41092721,16.2961796 L1.5,24.118034 L1.5,36.8531491 L5.76819841,43.4925688 L42.0313913,42.5124825 L44.4839686,5.72382296 L39.3296487,1.50665213 L26.067143,1.99785604 L17.7529762,3.95413057 Z" id="Combined-Shape" fill="#000000" fill-rule="nonzero"></path>
    </g>
</svg>

<svg viewBox="0 0 46 45" xmlns="http://www.w3.org/2000/svg" preserveAspectRatio="xMidYMid meet"><title>Ruby Gem icon</title><path d="M32.3498 31.8182l10.703-16.2873-14.35.9563-.0693.061 3.7163 15.2696zm11.9544-16.3707L32.9432 32.736l9.4104 9.4104-.7072.7072-9.6863-9.6864-13.651 10.726L17 43.5l13.9608-10.8194L16.5 28.5 9.4957 44 4.5 32.6806l-3.0528 4.543-.8944-.4472 3.512-6.029-3.512-7.0238.8944-.4472 3.3112 6.6223 10.9925-3.3455 11.866-10.4425 3.2903-10.915-4.6944-3.286.5734-.8193 4.756 3.3292 7.734-3.8668.447.8944-7.316 3.658L44.78 15.416l-.4758.0317zM31.303 31.7773L27.7136 17.358l-11.155 9.8164 14.7444 4.603zm-15.5745-4.172l-10.836 3.298L9.4955 41.5l6.233-13.8947zM31.753 5.8617l-3.0887 9.6262 13.5557-.904-10.467-8.7225zm-5.8675-4.8484l13.785-.52 5.8455 4.783-2.5474 38.2112-37.7368 1.02L.5 37.1468V23.882l4.0528-8.1056.0936-.13L17.247 3.046l8.6385-2.0327zM17.753 3.954L5.411 16.2963 1.5 24.118v12.735l4.2682 6.6396 36.2632-.98 2.4526-36.789-5.1544-4.217-13.2625.491-8.314 1.9564z" fill="#000000"/></svg>
